X:065
T: Jackson's Maid at the Fair
N: O'Farrell's Pocket Companion v.1 (Sky ed. p.47)
N: "Irish"
M: 6/8
L: 1/8
R: jig
Q: 320
K: A
A|FAF FEF|BcB B2d|FAF FEF|ABA A2d|
F2F FEF|BcB Bcd|cBA BAF|ABA A2 :|
P:2
d|cBA cec|BcB B2d|cBA cec|ABA A2d|
cBA cde|fdB Bcd|cBA BAF|ABA A2 :|
P:3
B/c/|dAF FDF|BcB B2c|dAF FDF|ABA ABc|
dAF FDF|BcB Bcd|cBA BAF|ABA A2 :|
